X:1
T:Lyric Pieces
T:Lyric Pieces
T:Op. 47, No. 2 "Albumblatt"
T:Edvard H. Grieg
C:Edvard H. Grieg
%%score { ( 1 2 ) | ( 3 4 ) }
L:1/8
Q:1/4=153
M:6/8
K:F
V:1 treble nm="Piano" snm="Pno."
V:2 treble 
V:3 bass 
V:4 bass 
V:1
"^Allegro vivace e grazioso"!p! (A>GF/G/ A2 F | A>GF/G/ A3) | (c>de/d/ c2 ^G | c3 f2) z | %4
 (c>=BA/B/ c2 A | c>=BA/B/ c3) |"_cresc." (e>fg/f/ e2 c | e3!<(! (a3-)!<)! |!f! a2 ^f d^de | %9
 =f2 =d =B2) z | z (a^f d^de- | e=f=d!<(! A^A=B-!<)! | BcA"_dim." ^CDE | F^GA ^c).[Ad].[df] | %14
 .[fa] z z z2 z | !>!E6 | (C>=B,C/D/ !>!E3) | (C>=B,C/D/ !>!E3) |!pp! .C2 z .[Ec]2 z | %19
 [ec']3- [ec'] z z :|!p! (G>^FG/A/!<(! B3- | B>AB/c/ d3-!<)! | %22
!mp! d) x/ [B^c]/x/[Bd]/!>(! x/ [d^f]/x/[dg]/x/[ga]/ | x/ [gb]/x/[b^c']/x/!>)![bd']/!pp! .g' z z | %24
"_cresc." (c>=B!<(!c/d/ _e3- | e>d_e/f/ g3-!<)! | %26
!mp! g) x/!>(! [_e^f]/x/[eg]/ x/ [g=b]/x/[gc']/x/[c'd']/ | %27
 x/ [c'_e']/x/[e'^f']/x/!>)![e'g']/!pp! .c'' z z | %28
 z/!pp! ([bd']/=e'/[bd']/f'/[bd']/) z/ ([bd']/e'/[bd']/f'/[bd']/) | %29
!<(! z/ ([bd']/e'/[bd']/f'/[bd']/) z/ ([bd']/e'/[bd']/f'/[bd']/)!<)! | %30
!>(! z/ ([=bd']/e'/[bd']/f'/[bd']/) z/ ([bd']/e'/[bd']/f'/[bd']/)!>)! | %31
!pp! z/ ([=bd']/e'/[bd']/f'/[bd']/) z/ ([bd']/e'/[bd']/f'/[bd']/) | %32
 z/ ([_b_d']/e'/[bd']/f'/[bd']/) z/ ([bd']/e'/[bd']/f'/[bd']/) | %33
!<(! z/ ([b_d']/e'/[bd']/f'/[bd']/) z/ ([bd']/e'/!<)![bd']/f'/!mf![bd']/) | %34
 z/ ([b_d']/e'/[bd']/f'/[bd']/) z/ ([bd']/e'/[bd']/f'/[bd']/) | %35
 z/ ([b_d']/e'/[bd']/f'/[bd']/) z/!<(! ([bd']/f'/[bd']/^f'/[bd']/)!<)! | %36
 z/ ([b_d']/^f'/[bd']/g'/[bd']/) z/"_dim."!>(! ([bd']/f'/[bd']/g'/[bd']/) | %37
"_molto" z/ ([b_d']/^f'/[bd']/g'/[bd']/) z/ ([gb]/^d'/[gb]/e'/[gb]/) | %38
 z/ ([eg]/c'/[eg]/_d'/[eg]/) z/ ([_de]/a/[de]/b/[de]/) | %39
 z/ ([B_d]/^f/[Bd]/g/[Bd]/) z/ ([GB]/^d/[GB]/e/[GB]/)!>)! | z6 | %41
!pp!"^dolcissimo" z/ ([_GB]/c/[GB]/_d/[GB]/) z/ ([GB]/c/[GB]/d/[GB]/) |"^m.s." !>!_g6 | %43
 z/"^m.d." ([EB]/^c/!<(![EB]/=d/[EB]/) z/ ([EB]/c/[EB]/d/[EB]/)!<)! |"^m.s."!f! (!>!=g6- | %45
 g2"_m.d." A!>(! B2 c | ^c2 d ^F2 G | A2 B ^C2 D!>)! | %48
[Q:3/8=102] E2[Q:3/8=100] F[Q:3/8=99] G2[Q:3/8=97] ^G) |!p!"^a tempo"[Q:3/8=102] (A>GF/G/ A2 F | %50
 A>GF/G/ A3) | (c>de/d/ c2 ^G | c3 f2) z | (c>=BA/B/ c2 A | c>=BA/B/ c3) | (e>fg/f/ e2 c | %56
!<(! e3 (a3-)!<)! |"_cresc." a2 ^f d^de | =f2 =d =B2) z | z (a^f d^de- | e=f=d =B3) | %61
!f! (d'2 _b ^fga | _b2 g e3) | z (d'b ^fga- |!<(! abg ^c!<)!de- | efd"_dim." ^FGA | %66
 B^c!>(!d ^f).[dg].[gb]!>)! | .[bd'] z z z2 z |!p! !>![B,EB]6 | (F>EF/G/ !>![B,EA]3) | %70
!>(! (F>EF/G/!>)! !>![B,EA]3) |!pp! .[A,F]2 z .[Af]2 z | [af']3- [af'] z z |!p! (G>^FG/A/!<(! B3- | %74
 B>AB/c/ d3-!<)! |!mp! d) x/ [B^c]/x/[Bd]/!>(! x/ [d^f]/x/[dg]/x/[ga]/ | %76
 x/ [gb]/x/[b^c']/x/!>)![bd']/!pp! .g' z z |"_cresc." (c>=B!<(!c/d/ _e3- | e>d_e/f/ g3-!<)! | %79
!mp! g) x/!>(! [_e^f]/x/[eg]/ x/ [g=b]/x/[gc']/x/[c'd']/ | %80
 x/ [c'_e']/x/[e'^f']/x/!>)![e'g']/!pp! .c'' z z | %81
 z/!pp! ([bd']/=e'/[bd']/f'/[bd']/) z/ ([bd']/e'/[bd']/f'/[bd']/) | %82
 z/ ([bd']/!<(!e'/[bd']/f'/[bd']/) z/ ([bd']/e'/[bd']/f'/[bd']/)!<)! | %83
 z/ ([=bd']/e'/!>(![bd']/f'/[bd']/) z/ ([bd']/e'/[bd']/f'/[bd']/) | %84
 z/ ([=bd']/!>)!e'/!pp![bd']/f'/[bd']/) z/ ([bd']/e'/[bd']/f'/[bd']/) | %85
 z/ ([_b_d']/e'/[bd']/f'/[bd']/) z/ ([bd']/e'/[bd']/f'/[bd']/) | %86
!<(! z/ ([b_d']/e'/[bd']/f'/[bd']/) z/ ([bd']/e'/!<)![bd']/f'/!mf![bd']/) | %87
 z/ ([b_d']/e'/[bd']/f'/[bd']/) z/ ([bd']/e'/[bd']/f'/[bd']/) | %88
 z/ ([b_d']/e'/[bd']/f'/[bd']/) z/!<(! ([bd']/f'/[bd']/^f'/[bd']/)!<)! | %89
 z/ ([b_d']/^f'/[bd']/g'/[bd']/) z/"_dim."!>(! ([bd']/f'/[bd']/g'/[bd']/) | %90
"_molto" z/ ([b_d']/^f'/[bd']/g'/[bd']/) z/ ([gb]/^d'/[gb]/e'/[gb]/) | %91
 z/ ([eg]/c'/[eg]/_d'/[eg]/) z/ ([_de]/a/[de]/b/[de]/) | %92
 z/ ([B_d]/^f/[Bd]/g/[Bd]/) z/ ([GB]/^d/[GB]/e/[GB]/)!>)! | z6 | %94
!pp!"^dolcissimo" z/ ([_GB]/c/[GB]/_d/[GB]/) z/ ([GB]/c/[GB]/d/[GB]/) |"^m.s." !>!_g6 | %96
 z/"^m.d." ([EB]/^c/!<(![EB]/=d/[EB]/) z/ ([EB]/c/[EB]/d/[EB]/)!<)! |"^m.s."!f! (!>!=g6- | %98
 g2"_m.d." A!>(! B2 c | ^c2 d ^F2 G | A2 B ^C2 D!>)! | E2 F G2 ^G) |!p!"^a tempo" (A>GF/G/ A2 F | %103
 A>GF/G/ A3) | (c>de/d/ c2 ^G | c3 f2) z | (c>=BA/B/ c2 A | c>=BA/B/ c3) | (e>fg/f/ e2 c | %109
!<(! e3 (a3-)!<)! |"_cresc." a2 ^f d^de | =f2 =d =B2) z | z (a^f d^de- | e=f=d =B3) | %114
!f! (d'2 _b ^fga | _b2 g e3) | z (d'b ^fga- |!<(! abg ^c!<)!de- | efd"_dim." ^FGA | %119
 B^c!>(!d ^f).[dg].[gb]!>)! | .[bd'] z z z2 z |!p! !>![B,EB]6 | (F>EF/G/ !>![B,EA]3) | %123
!>(! (F>EF/G/!>)! !>![B,EA]3) |!pp! .[A,F]2 z .[Af]2 z | [af']3- [af'] z z |] %126
V:2
 A,3 B,3 | C3 B,3 | F3 F2 E | F3- F2 x | C3 D3 | E3 D3 | A3 A2 ^G | A3- A^G=G | !>!^F6 | %9
 =F3- F2 x | !>!^F6 | =F6 | x6 | x6 | x6 | x6 | x6 | x6 | x6 | x6 :| D3- D2 E | F3- F2 ^F | %22
 z x x4 | x6 | G3- G2 A | B3- B2 =B | z x x4 | x6 | x6 | x6 | x6 | x6 | x6 | x6 | x6 | x6 | x6 | %37
 x6 | x6 | x6 | x6 | x6 | x6 | x6 | x6 | x6 | x6 | x6 | x6 | A,3 B,3 | C3 B,3 | F3 F2 E | %52
 F3- F2 x | C3 D3 | E3 D3 | A3 A2 ^G | A3- A^G=G | ^F6 | =F3- F2 x | ^F6 | =F6 | d6 | _B6 | d6 | %64
 B6 | !>!F6- | F2 x4 | x6 | x6 | A,3 x3 | A,3 x3 | x6 | x6 | D3- D2 E | F3- F2 ^F | z x x4 | x6 | %77
 G3- G2 A | B3- B2 =B | z x x4 | x6 | x6 | x6 | x6 | x6 | x6 | x6 | x6 | x6 | x6 | x6 | x6 | x6 | %93
 x6 | x6 | x6 | x6 | x6 | x6 | x6 | x6 | x6 | A,3 B,3 | C3 B,3 | F3 F2 E | F3- F2 x | C3 D3 | %107
 E3 D3 | A3 A2 ^G | A3- A^G=G | ^F6 | =F3- F2 x | ^F6 | =F6 | d6 | _B6 | d6 | B6 | !>!F6- | F2 x4 | %120
 x6 | x6 | A,3 x3 | A,3 x3 | x6 | x6 |] %126
V:3
"^e dolce" C,3 D,3 | E,3 D,3 |!ped! A,3 B,3!ped-up! |!ped! A,3- A,2 z!ped-up! | E,3 F,3 | G,3 F,3 | %6
!ped! C3 D3!ped-up! |!ped! C6!ped-up! |!ped! !>![D,C]6!ped-up! | %9
!ped! !arpeggio![G,,D,=B,]3- [G,,D,B,]2 z!ped-up! |!ped! !>![D,C]6!ped-up! | %11
!ped! !arpeggio![G,,D,=B,]6!ped-up! |!ped! !arpeggio!!>![F,,D,A,C]6- | %13
 [F,,D,A,C]2 z!ped-up! z[I:staff -1] .F.A | .d[I:staff +1] z z z2 z |!p! [F,=B,]6 | %16
!ped! E,3!ped-up! [F,=B,]3 |!ped! E,3!ped-up! [F,=B,]3 |!ped! E,2!ped! x4!ped-up! | %19
[I:staff -1] [CG]3- [CG][I:staff +1] z z :| _B,3- B,2 C | D3- D2 ^D | %22
!ped! !arpeggio![C,B,E][I:staff -1] G/[I:staff +1]x/[I:staff -1]G/[I:staff +1] x/[I:staff -1] B/[I:staff +1]x/!ped-up![I:staff -1]B/[I:staff +1]x/[I:staff -1]d/[I:staff +1] x/ | %23
[I:staff -1] d/[I:staff +1]x/[I:staff -1]g/[I:staff +1]x/[I:staff -1]g/[I:staff +1] x/ z2 z | %24
 _E3- E2 F | G3- G2 ^G | %26
!ped! !arpeggio![F,_EA][I:staff -1] c/[I:staff +1]x/[I:staff -1]c/[I:staff +1] x/[I:staff -1] _e/[I:staff +1]x/[I:staff -1]e/[I:staff +1]x/!ped-up![I:staff -1]g/[I:staff +1] x/ | %27
[I:staff -1] g/[I:staff +1]x/[I:staff -1]c'/[I:staff +1]x/[I:staff -1]c'/[I:staff +1] x/ z2 z | %28
!mf!"^cantabile"!ped! (B,,2 F, B,2!ped-up! C |!ped! D2[K:treble] F B2 A)!ped-up! | %30
!ped! (!arpeggio![E,-=B,-D-A]6!ped-up! | [E,B,D^G]2) z z2 z | %32
[K:bass]!ped! (_B,,2 F, B,2 C!ped-up! |!ped! _D2[K:treble] F B2 A)!ped-up! | %34
"^più cresc."!ped! (!arpeggio!!>![_E,-B,-_D-_A]6!ped-up! | %35
 [E,B,DG]3)[K:bass]"^ten."!ped-up!!ped!{/_D,} (!>!_G2 !>!=F) | %36
[K:bass]!ped! (!>![G,-_B,-F]6!ped-up! | [G,B,E]6-) | [G,B,E]6- | [G,B,E]3- [G,B,E]2 z | z6 | %41
!ped!{/_D,-} .[D,B,]2"^una corda" z ._D,,2 z!ped-up! | z6 | %43
"^tre corde"!ped!{/C,-} .[C,B,]2 z .C,,2 z!ped-up! | z6 | z6 | z6 | z6 | %48
"^poco rit." z2 z!ped! E,2 D,!ped-up! |"^e dolce" C,3 D,3 | E,3 D,3 |!ped! A,3 B,3!ped-up! | %52
!ped! A,3- A,2 z!ped-up! | E,3 F,3 | G,3 F,3 |!ped! C3 D3!ped-up! | %56
!ped! !arpeggio![A,,E,C]6!ped-up! |!ped! [D,C]6!ped-up! |!ped! !arpeggio![G,,D,=B,]6!ped-up! | %59
!ped! [D,C]6!ped-up! |!ped! !arpeggio![G,,D,=B,]6!ped-up! |!ped! !arpeggio!.[G,DF_B]6!ped-up! | %62
!ped! !arpeggio!.[C,G,B,E]6!ped-up! |!ped! !arpeggio!.[G,DFB]6!ped-up! | %64
!ped! !arpeggio!.[C,G,B,E]6!ped-up! |!ped! !arpeggio![B,,G,D]6-!ped-up! | %66
 [B,,G,D]2 z z[I:staff -1] .B.d | .g[I:staff +1] z z z2 z | _D,3- D,2 C, | %69
!ped! [F,,C,]3!ped-up! !>![_D,_D]3 |!ped! [F,,C,]3!ped-up! !>![_D,_D]3 | %71
!ped! .[F,,C,]2 z!ped-up! .[F,C]2 z |[I:staff -1] [Fc]3- [Fc][I:staff +1] z z | _B,3- B,2 C | %74
 D3- D2 ^D | %75
!ped! !arpeggio![C,B,E][I:staff -1] G/[I:staff +1]x/[I:staff -1]G/[I:staff +1] x/[I:staff -1] B/[I:staff +1]x/[I:staff -1]B/[I:staff +1]x/!ped-up![I:staff -1]d/[I:staff +1] x/ | %76
[I:staff -1] d/[I:staff +1]x/[I:staff -1]g/[I:staff +1]x/[I:staff -1]g/[I:staff +1] x/ z2 z | %77
 _E3- E2 F | G3- G2 ^G | %79
!ped! !arpeggio![F,_EA][I:staff -1] c/[I:staff +1]x/[I:staff -1]c/[I:staff +1] x/[I:staff -1] _e/[I:staff +1]x/[I:staff -1]e/[I:staff +1]x/!ped-up![I:staff -1]g/[I:staff +1] x/ | %80
[I:staff -1] g/[I:staff +1]x/[I:staff -1]c'/[I:staff +1]x/[I:staff -1]c'/[I:staff +1] x/ z2 z | %81
!mf!"^cantabile"!ped! (B,,2 F, B,2!ped-up! C |!ped! D2[K:treble] F B2 A)!ped-up! | %83
!ped! (!arpeggio![E,-=B,-D-A]6!ped-up! | [E,B,D^G]2) z z2 z | %85
[K:bass]!ped! (_B,,2 F, B,2 C!ped-up! |!ped! _D2[K:treble] F B2 A)!ped-up! | %87
"^più cresc."!ped! (!arpeggio!!>![_E,-B,-_D-_A]6!ped-up! | %88
 [E,B,DG]3)[K:bass]"^ten."!ped-up!!ped!{/_D,} (!>!_G2 !>!=F) | %89
[K:bass]!ped! (!>![G,-_B,-F]6!ped-up! | [G,B,E]6-) | [G,B,E]6- | [G,B,E]3- [G,B,E]2 z | z6 | %94
!ped!{/_D,-} .[D,B,]2"^una corda" z ._D,,2 z!ped-up! | z6 | %96
"^tre corde"!ped!{/C,-} .[C,B,]2 z .C,,2 z!ped-up! | z6 | z6 | z6 | z6 | %101
"^poco rit." z2 z!ped! E,2 D,!ped-up! |"^e dolce" C,3 D,3 | E,3 D,3 |!ped! A,3 B,3!ped-up! | %105
!ped! A,3- A,2 z!ped-up! | E,3 F,3 | G,3 F,3 |!ped! C3 D3!ped-up! | %109
!ped! !arpeggio![A,,E,C]6!ped-up! |!ped! [D,C]6!ped-up! |!ped! !arpeggio![G,,D,=B,]6!ped-up! | %112
!ped! [D,C]6!ped-up! |!ped! !arpeggio![G,,D,=B,]6!ped-up! |!ped! !arpeggio!.[G,DF_B]6!ped-up! | %115
!ped! !arpeggio!.[C,G,B,E]6!ped-up! |!ped! !arpeggio!.[G,DFB]6!ped-up! | %117
!ped! !arpeggio!.[C,G,B,E]6!ped-up! |!ped! !arpeggio![B,,G,D]6-!ped-up! | %119
 [B,,G,D]2 z z[I:staff -1] .B.d | .g[I:staff +1] z z z2 z | _D,3- D,2 C, | %122
!ped! [F,,C,]3!ped-up! !>![_D,_D]3 |!ped! [F,,C,]3!ped-up! !>![_D,_D]3 | %124
!ped! .[F,,C,]2 z!ped-up! .[F,C]2 z |[I:staff -1] [Fc]3- [Fc][I:staff +1] z z |] %126
V:4
 F,,6- | F,,6 | !arpeggio![F,,C,]6 | [F,,C,]3- [F,,C,]2 x | A,,6- | A,,6 | !arpeggio![A,,E,]6 | %7
 [A,,E,]6 | x6 | x6 | x6 | x6 | x6 | x6 | x6 | !>!_A,,3- A,,2 G,, | [C,,G,,]3 !>![_A,,_A,]3 | %17
 [C,,G,,]3 !>![_A,,_A,]3 | .[C,,G,,]2 z .[C,G,]2 z | x6 :| C,6- | C,6 | x6 | x6 | F,6- | F,6 | x6 | %27
 x6 | x6 | x2[K:treble] x4 | x6 | x6 |[K:bass] x6 | x2[K:treble] x4 | x6 | x3[K:bass] x3 | %36
[K:bass]{/!>![C,,C,]-} [C,,C,]6- | [C,,C,]6- | [C,,C,]6- | [C,,C,]3- [C,,C,]2 x | x6 | x6 | x6 | %43
 x6 | x6 | x6 | x6 | x6 | x2 x !arpeggio!C,,3 | F,,6- | F,,6 | !arpeggio![F,,C,]6 | %52
 [F,,C,]3- [F,,C,]2 x | A,,6- | A,,6 | !arpeggio![A,,E,]6 | x6 | x6 | x6 | x6 | x6 | x6 | x6 | x6 | %64
 x6 | x6 | x6 | x6 | x6 | x6 | x6 | x6 | x6 | C,6- | C,6 | x6 | x6 | F,6- | F,6 | x6 | x6 | x6 | %82
 x2[K:treble] x4 | x6 | x6 |[K:bass] x6 | x2[K:treble] x4 | x6 | x3[K:bass] x3 | %89
[K:bass]{/!>![C,,C,]-} [C,,C,]6- | [C,,C,]6- | [C,,C,]6- | [C,,C,]3- [C,,C,]2 x | x6 | x6 | x6 | %96
 x6 | x6 | x6 | x6 | x6 | x2 x !arpeggio!C,,3 | F,,6- | F,,6 | !arpeggio![F,,C,]6 | %105
 [F,,C,]3- [F,,C,]2 x | A,,6- | A,,6 | !arpeggio![A,,E,]6 | x6 | x6 | x6 | x6 | x6 | x6 | x6 | x6 | %117
 x6 | x6 | x6 | x6 | x6 | x6 | x6 | x6 | x6 |] %126

